!!!OTL: HEUT IST EIN FREUDENREICHER TAG
!!!ARE: Europa, Mitteleuropa, Deutschland, Bayern
!!!SCT: E1066
!!!YEM: Copyright 1995, estate of Helmut Schaffrath.
**kern
*ICvox
*Ivox
*M3/4
*k[]
*C:
{4c
=1
2c
4d
=2
2c
4A
=3
2G
4G
=4
2D}
{4E
=5
2F
4F
=6
2F
4A
=7
2G
4G
=8
2C}
{4G
=9
2G
4F
=10
2E
4D
=11
2C}
{4G
=12
4.G
8A
4A
=13
2c}
==
!!!AGN: Wett - Lied, Streit zwischen Sommer und Winter
!!!ONB: ESAC (Essen Associative Code) Database: ERK3
!!!AMT: simple triple
!!!AIN: vox
!!!EED: Helmut Schaffrath
!!!EEV: 1.0
*-
